storage/app/icons/phosphoricons/thin/car-thin.svg

<svg xmlns="http://www.w3.org/2000/svg" fill="currentColor" viewBox="0 0 256 256"><path d="M240 108h-13.4l-28.83-64.87a12 12 0 0 0-11-7.13H69.2a12 12 0 0 0-11 7.13L29.4 108H16a4 4 0 0 0 0 8h12v84a12 12 0 0 0 12 12h24a12 12 0 0 0 12-12v-20h104v20a12 12 0 0 0 12 12h24a12 12 0 0 0 12-12v-84h12a4 4 0 0 0 0-8M65.54 46.38A4 4 0 0 1 69.2 44h117.6a4 4 0 0 1 3.66 2.38L217.84 108H38.16ZM68 200a4 4 0 0 1-4 4H40a4 4 0 0 1-4-4v-20h32Zm148 4h-24a4 4 0 0 1-4-4v-20h32v20a4 4 0 0 1-4 4m4-32H36v-56h184ZM60 144a4 4 0 0 1 4-4h16a4 4 0 0 1 0 8H64a4 4 0 0 1-4-4m112 0a4 4 0 0 1 4-4h16a4 4 0 0 1 0 8h-16a4 4 0 0 1-4-4"/></svg>

<svg xmlns="http://www.w3.org/2000/svg" viewBox="0 0 256 256" fill="currentColor"><path d="M240,108H226.6L197.77,43.13a12,12,0,0,0-11-7.13H69.2a12,12,0,0,0-11,7.13L29.4,108H16a4,4,0,0,0,0,8H28v84a12,12,0,0,0,12,12H64a12,12,0,0,0,12-12V180H180v20a12,12,0,0,0,12,12h24a12,12,0,0,0,12-12V116h12a4,4,0,0,0,0-8ZM65.54,46.38A4,4,0,0,1,69.2,44H186.8a4,4,0,0,1,3.66,2.38L217.84,108H38.16ZM68,200a4,4,0,0,1-4,4H40a4,4,0,0,1-4-4V180H68Zm148,4H192a4,4,0,0,1-4-4V180h32v20A4,4,0,0,1,216,204Zm4-32H36V116H220ZM60,144a4,4,0,0,1,4-4H80a4,4,0,0,1,0,8H64A4,4,0,0,1,60,144Zm112,0a4,4,0,0,1,4-4h16a4,4,0,0,1,0,8H176A4,4,0,0,1,172,144Z"/></svg>
